X: 7
T: Monymusk
R: reel
M: 4/4
L: 1/8
K: Amaj
f|eAcA eAdf|eAcA Bcdf|eAcA cdea|fdBe cAAf|
eAcA eAdf|eAcA Bcdf|eAcA cdea|fdBd cAAg||
aefa eaca|aedb caBg|aefa eaca|fdBd cAAg|
aefa eaca|aedb caBg|aefa eaca|fdBe cAA||
|:((3efg)|acea e'aba|gBeg befg|acea c'aba|gfdB A:|
|:((3efg)|ac'ea c'ee'e|gbeg bee'e| ac'ea bee'e|gbeg a:|


Tune 1387	Setting 14751

